X: 1
T: Con McGinley's
M: 4/4
L: 1/8
R: reel
K: Amaj
|:c3 A BE~E2|EFGA B2 Bd|cdBc Aceg|1afed cAAB:|2afed cAA2||
|:agab aece|(3fga ec BEGB|agab aece|1(3fga ed cAA2:|2(3fga bg afed||
